!!!COM: Gustav Mahler
!!!CNT: Deutsch
!!!TXO: Deutsch
!!!OTL: "Wenn mein Schatz Hochzeit macht"
!!!LYR: Gustav Mahler
!!!OPR: Lieder eines fahrenden Gesellen
!!!ENC: O'Neal Douglas
!!!YOR: CD Sheet Music: Late Romantic German Lieder
!!!YOR: CD Sheet Music, LLC, 2001
!!!ODT: 1885/
!!NB: Vocal melody and text encoded.
**kern	**text
*staff1	*staff1
=1-	=1-
*clefG2	*
*k[b-]	*
*M4/8	*
*MM120	*
2r	.
=2	=2
*M3/8	*
4.r	.
=3	=3
*M4/8	*
2r	.
=4	=4
*M3/8	*
4.r	.
=5	=5
*M2/4	*
{(8a	{Wenn
8g)	|
(8f	mein
8g)	|
=6	=6
2a	Schatz
=7	=7
4a	Hoch-
4dd	-zeit
=8	=8
2a}	macht,}
=9	=9
*M3/8	*
4.r	.
=10	=10
*M2/4	*
{(8b-	{fro2h-
8a)	|
8g	-li-
8a	-che
=11	=11
4b-	Hoch-
4dd	-zeit
=12	=12
2b-}	macht,}
=13	=13
*M3/8	*
4.r	.
=14	=14
*M4/8	*
{4a	{hab'
4ff	ich
=15	=15
4ee	mei-
4dd	-nen
=16	=16
(8ee	trau-
8dd)	|
8cc	-ri-
8b-	-gen
=17	=17
2a}	Tag!}
=18	=18
2r	.
=19	=19
2r	.
=20	=20
2r	.
=21	=21
2r	.
=22	=22
{4b-	{Geh'
4a	ich
=23	=23
4a	in
4g	mein
=24	=24
4b-	Ka2m-
4a	-mer-
=25	=25
(4a	-lein,
4g)}	|}
=26	=26
{(8f	{dunk-
8e-)	|
(8d	-les
8e-)	|
=27	=27
4f	Ka2m-
4g	-mer-
=28	=28
2f	-lein,
=29	=29
2r	.
=30	=30
(8e-	wei-
8d)	|
4e-	-ne
=31	=31
(4d	wein'
4c)	|
=32	=32
(8d	um
8c)	|
8Bn	mel-
8c	-nen
=33	=33
2d	Schatz,
=34	=34
(4e-	um
4cc)	|
=35	=35
4b-	mei-
4g#	-nen
=36	=36
(4g	lie-
[4b-)	|
=37	=37
4b-]	|
4f#	-ben
=38	=38
4g}	Schatz!}
4r	.
=39	=39
*M3/8	*
4.r	.
=40	=40
4.r	.
=41	=41
*M4/8	*
2r	.
=42	=42
2r	.
=43	=43
2r	.
=44	=44
*k[b-e-a-]	*
*M6/8	*
2.r	.
=45	=45
2.r	.
=46	=46
{4b-	{Blu2m-
8cc	-lein
4.b-	blau!
=47	=47
4b-	Blu2m-
8cc	-lein
4b-	blau!
8b-	Ver-
=48	=48
4cc	-dor-
8dd	-re
4ee-	nicht!
8ee-	Ver-
=49	=49
(8ff	-dor-
8gg)	|
8ff	-re
4.ee-	nicht!
=50	=50
4r	.
8r	.
4b-	Vo2g-
8cc	-lein
=51	=51
4.b-	su2ss!
4b-	Vo2g-
8cc	-lein
=52	=52
*M3/8	*
4.b-}	su2ss!}
=53	=53
*M6/8	*
4r	.
8r	.
4r	.
{8d	{Du
=54	=54
4g	singst
8an	auf
(8b-	gru2-
8cc)	|
8dd	-ner
=55	=55
4.ee-	Hai-
4.dd}	-de}
=56	=56
2.r	.
=57	=57
*k[b-]	*
{4cc	{Ach!
8b-	wie
(8a	ist
8g#)	|
8a	die
=58	=58
4dd	Welt
8a	so
4b-	scho2n!
16r	.
16dd	Zi-
=59	=59
[4.cc	-ku2th!
4cc]	|
16r	.
16gg	Zi-
=60	=60
[4.cc	-ku2th!
8cc]}	|}
8r	.
8r	.
=61	=61
2.r	.
=62	=62
2.r	.
=63	=63
*M2/4	*
{(8a	{Sin-
8g)	|
(8f	-get
8g)	|
=64	=64
2a	nicht!
=65	=65
4a	Blu2-
4dd	-het
=66	=66
2a	nicht!
=67	=67
(8b-	Lenz
8a)	|
(8g	ist
8a)	|
=68	=68
4b-	ja
4dd	vor-
=69	=69
2b-	-bei!
=70	=70
4a	Al-
4ff	-les
=71	=71
4ee	Sin-
4dd	-gen
=72	=72
4cc	ist
4b-	nun
=73	=73
2a}	aus!}
=74	=74
2r	.
=75	=75
4r	.
8r	.
{8a	{Des
=76	=76
4b-	A-
4a	-bends,
=77	=77
4a	wenn
4g	ich
=78	=78
(8f	schla-
8e-)	|
(8d	-fen
8e-)	|
=79	=79
2f	geh',
=80	=80
(8e-	denk'
8d)	|
4e-	ich
=81	=81
4d	an
4c	mein
=82	=82
(8d	Lei-
8c	|
8Bn	|
8c)	|
=83	=83
4d	-de!
4r	.
=84	=84
(4e-	An
4cc)	|
=85	=85
(4b-	mein
4a-)	|
=86	=86
(4g	Lei-
[4b-)	|
=87	=87
*M3/4	*
4b-]	|
4f#}	-de!}
4r	.
=88	=88
*M4/8	*
2r	.
=89	=89
*M3/8	*
4.r	.
=90	=90
*M4/8	*
2r	.
=91	=91
*M3/8	*
4.r	.
=92	=92
4.r	.
=93	=93
4.r	.
=94	=94
4.r	.
=95	=95
4.r	.
=96	=96
4.r	.
==	==
*-	*-
